bernoullicharts/1_3_x_1_1_3_x__mean.svg

<?xml version="1.0" encoding="utf-8" standalone="no"?>
<!DOCTYPE svg PUBLIC "-//W3C//DTD SVG 1.1//EN"
  "http://www.w3.org/Graphics/SVG/1.1/DTD/svg11.dtd">
<!-- Created with matplotlib (https://matplotlib.org/) -->
<svg height="345.6pt" version="1.1" viewBox="0 0 460.8 345.6" width="460.8pt" xmlns="http://www.w3.org/2000/svg" xmlns:xlink="http://www.w3.org/1999/xlink">
 <defs>
  <style type="text/css">
*{stroke-linecap:butt;stroke-linejoin:round;}
  </style>
 </defs>
 <g id="figure_1">
  <g id="patch_1">
   <path d="M 0 345.6 
L 460.8 345.6 
L 460.8 0 
L 0 0 
z
" style="fill:#ffffff;"/>
  </g>
  <g id="axes_1">
   <g id="patch_2">
    <path d="M 57.6 307.584 
L 414.72 307.584 
L 414.72 41.472 
L 57.6 41.472 
z
" style="fill:#ffffff;"/>
   </g>
   <g id="matplotlib.axis_1">
    <g id="xtick_1">
     <g id="line2d_1">
      <defs>
       <path d="M 0 0 
L 0 3.5 
" id="m5344704c83" style="stroke:#000000;stroke-width:0.8;"/>
      </defs>
      <g>
       <use style="stroke:#000000;stroke-width:0.8;" x="73.800255" xlink:href="#m5344704c83" y="307.584"/>
      </g>
     </g>
     <g id="text_1">
      <text style="font-family:DejaVu Sans;font-size:10px;font-style:normal;font-weight:normal;text-anchor:middle;" transform="rotate(-0, 73.800255, 322.182437)" x="73.800255" y="322.182437">0.0</text>
     </g>
    </g>
    <g id="xtick_2">
     <g id="line2d_2">
      <g>
       <use style="stroke:#000000;stroke-width:0.8;" x="138.744153" xlink:href="#m5344704c83" y="307.584"/>
      </g>
     </g>
     <g id="text_2">
      <text style="font-family:DejaVu Sans;font-size:10px;font-style:normal;font-weight:normal;text-anchor:middle;" transform="rotate(-0, 138.744153, 322.182437)" x="138.744153" y="322.182437">0.2</text>
     </g>
    </g>
    <g id="xtick_3">
     <g id="line2d_3">
      <g>
       <use style="stroke:#000000;stroke-width:0.8;" x="203.688051" xlink:href="#m5344704c83" y="307.584"/>
      </g>
     </g>
     <g id="text_3">
      <text style="font-family:DejaVu Sans;font-size:10px;font-style:normal;font-weight:normal;text-anchor:middle;" transform="rotate(-0, 203.688051, 322.182437)" x="203.688051" y="322.182437">0.4</text>
     </g>
    </g>
    <g id="xtick_4">
     <g id="line2d_4">
      <g>
       <use style="stroke:#000000;stroke-width:0.8;" x="268.631949" xlink:href="#m5344704c83" y="307.584"/>
      </g>
     </g>
     <g id="text_4">
      <text style="font-family:DejaVu Sans;font-size:10px;font-style:normal;font-weight:normal;text-anchor:middle;" transform="rotate(-0, 268.631949, 322.182437)" x="268.631949" y="322.182437">0.6</text>
     </g>
    </g>
    <g id="xtick_5">
     <g id="line2d_5">
      <g>
       <use style="stroke:#000000;stroke-width:0.8;" x="333.575847" xlink:href="#m5344704c83" y="307.584"/>
      </g>
     </g>
     <g id="text_5">
      <text style="font-family:DejaVu Sans;font-size:10px;font-style:normal;font-weight:normal;text-anchor:middle;" transform="rotate(-0, 333.575847, 322.182437)" x="333.575847" y="322.182437">0.8</text>
     </g>
    </g>
    <g id="xtick_6">
     <g id="line2d_6">
      <g>
       <use style="stroke:#000000;stroke-width:0.8;" x="398.519745" xlink:href="#m5344704c83" y="307.584"/>
      </g>
     </g>
     <g id="text_6">
      <text style="font-family:DejaVu Sans;font-size:10px;font-style:normal;font-weight:normal;text-anchor:middle;" transform="rotate(-0, 398.519745, 322.182437)" x="398.519745" y="322.182437">1.0</text>
     </g>
    </g>
    <g id="text_7">
     <text style="font-family:DejaVu Sans;font-size:10px;font-style:normal;font-weight:normal;text-anchor:middle;" transform="rotate(-0, 236.16, 335.860562)" x="236.16" y="335.860562">Input Coin's Heads Probability (λ)</text>
    </g>
   </g>
   <g id="matplotlib.axis_2">
    <g id="ytick_1">
     <g id="line2d_7">
      <defs>
       <path d="M 0 0 
L -3.5 0 
" id="mf8badf818e" style="stroke:#000000;stroke-width:0.8;"/>
      </defs>
      <g>
       <use style="stroke:#000000;stroke-width:0.8;" x="57.6" xlink:href="#mf8badf818e" y="295.488"/>
      </g>
     </g>
     <g id="text_8">
      <text style="font-family:DejaVu Sans;font-size:10px;font-style:normal;font-weight:normal;text-anchor:end;" transform="rotate(-0, 50.6, 299.287219)" x="50.6" y="299.287219">0.00</text>
     </g>
    </g>
    <g id="ytick_2">
     <g id="line2d_8">
      <g>
       <use style="stroke:#000000;stroke-width:0.8;" x="57.6" xlink:href="#mf8badf818e" y="251.342015"/>
      </g>
     </g>
     <g id="text_9">
      <text style="font-family:DejaVu Sans;font-size:10px;font-style:normal;font-weight:normal;text-anchor:end;" transform="rotate(-0, 50.6, 255.141233)" x="50.6" y="255.141233">0.05</text>
     </g>
    </g>
    <g id="ytick_3">
     <g id="line2d_9">
      <g>
       <use style="stroke:#000000;stroke-width:0.8;" x="57.6" xlink:href="#mf8badf818e" y="207.196029"/>
      </g>
     </g>
     <g id="text_10">
      <text style="font-family:DejaVu Sans;font-size:10px;font-style:normal;font-weight:normal;text-anchor:end;" transform="rotate(-0, 50.6, 210.995248)" x="50.6" y="210.995248">0.10</text>
     </g>
    </g>
    <g id="ytick_4">
     <g id="line2d_10">
      <g>
       <use style="stroke:#000000;stroke-width:0.8;" x="57.6" xlink:href="#mf8badf818e" y="163.050044"/>
      </g>
     </g>
     <g id="text_11">
      <text style="font-family:DejaVu Sans;font-size:10px;font-style:normal;font-weight:normal;text-anchor:end;" transform="rotate(-0, 50.6, 166.849263)" x="50.6" y="166.849263">0.15</text>
     </g>
    </g>
    <g id="ytick_5">
     <g id="line2d_11">
      <g>
       <use style="stroke:#000000;stroke-width:0.8;" x="57.6" xlink:href="#mf8badf818e" y="118.904058"/>
      </g>
     </g>
     <g id="text_12">
      <text style="font-family:DejaVu Sans;font-size:10px;font-style:normal;font-weight:normal;text-anchor:end;" transform="rotate(-0, 50.6, 122.703277)" x="50.6" y="122.703277">0.20</text>
     </g>
    </g>
    <g id="ytick_6">
     <g id="line2d_12">
      <g>
       <use style="stroke:#000000;stroke-width:0.8;" x="57.6" xlink:href="#mf8badf818e" y="74.758073"/>
      </g>
     </g>
     <g id="text_13">
      <text style="font-family:DejaVu Sans;font-size:10px;font-style:normal;font-weight:normal;text-anchor:end;" transform="rotate(-0, 50.6, 78.557292)" x="50.6" y="78.557292">0.25</text>
     </g>
    </g>
    <g id="text_14">
     <text style="font-family:DejaVu Sans;font-size:10px;font-style:normal;font-weight:normal;text-anchor:middle;" transform="rotate(-90, 22.254687, 174.528)" x="22.254687" y="174.528">Simulated Mean / Function Value</text>
    </g>
   </g>
   <g id="line2d_13">
    <path clip-path="url(#p951c30a8a4)" d="M 73.832727 295.45857 
L 77.112066 292.49654 
L 80.391405 289.554318 
L 83.670744 286.631707 
L 86.950083 283.72851 
L 90.229421 280.844536 
L 93.50876 277.979593 
L 96.788099 275.133494 
L 100.067438 272.306054 
L 103.346777 269.49709 
L 106.626116 266.706421 
L 109.905455 263.933869 
L 113.184793 261.179259 
L 116.464132 258.442416 
L 119.743471 255.723169 
L 123.02281 253.02135 
L 126.302149 250.336791 
L 129.581488 247.669327 
L 132.860826 245.018796 
L 136.140165 242.385037 
L 139.419504 239.767891 
L 142.698843 237.167201 
L 145.978182 234.582813 
L 149.257521 232.014574 
L 152.53686 229.462333 
L 155.816198 226.925941 
L 159.095537 224.405251 
L 162.374876 221.900117 
L 165.654215 219.410396 
L 168.933554 216.935947 
L 172.212893 214.476628 
L 175.492231 212.032302 
L 178.77157 209.602832 
L 182.050909 207.188083 
L 185.330248 204.787922 
L 188.609587 202.402216 
L 191.888926 200.030836 
L 195.168264 197.673653 
L 198.447603 195.33054 
L 201.726942 193.00137 
L 205.006281 190.686022 
L 208.28562 188.38437 
L 211.564959 186.096295 
L 214.844298 183.821676 
L 218.123636 181.560396 
L 221.402975 179.312336 
L 224.682314 177.077383 
L 227.961653 174.85542 
L 231.240992 172.646336 
L 234.520331 170.450019 
L 237.799669 168.266358 
L 241.079008 166.095244 
L 244.358347 163.93657 
L 247.637686 161.790228 
L 250.917025 159.656114 
L 254.196364 157.534124 
L 257.475702 155.424153 
L 260.755041 153.326101 
L 264.03438 151.239867 
L 267.313719 149.16535 
L 270.593058 147.102454 
L 273.872397 145.05108 
L 277.151736 143.011132 
L 280.431074 140.982514 
L 283.710413 138.965134 
L 286.989752 136.958897 
L 290.269091 134.963711 
L 293.54843 132.979486 
L 296.827769 131.006132 
L 300.107107 129.043558 
L 303.386446 127.091678 
L 306.665785 125.150404 
L 309.945124 123.21965 
L 313.224463 121.299331 
L 316.503802 119.389361 
L 319.78314 117.489659 
L 323.062479 115.60014 
L 326.341818 113.720724 
L 329.621157 111.85133 
L 332.900496 109.991877 
L 336.179835 108.142287 
L 339.459174 106.302482 
L 342.738512 104.472383 
L 346.017851 102.651915 
L 349.29719 100.841002 
L 352.576529 99.039567 
L 355.855868 97.247539 
L 359.135207 95.464841 
L 362.414545 93.691403 
L 365.693884 91.927153 
L 368.973223 90.172018 
L 372.252562 88.425928 
L 375.531901 86.688815 
L 378.81124 84.960608 
L 382.090579 83.241239 
L 385.369917 81.530641 
L 388.649256 79.828747 
L 391.928595 78.13549 
L 395.207934 76.450806 
L 398.487273 74.774628 
" style="fill:none;stroke:#1f77b4;stroke-linecap:square;stroke-width:1.5;"/>
   </g>
   <g id="line2d_14">
    <path clip-path="url(#p951c30a8a4)" d="M 73.832727 295.488 
L 77.112066 291.956321 
L 80.391405 293.722161 
L 83.670744 286.658803 
L 86.950083 274.297927 
L 90.229421 279.595445 
L 93.50876 267.234569 
L 96.788099 258.405372 
L 100.067438 263.702891 
L 103.346777 279.595445 
L 106.626116 274.297927 
L 109.905455 276.063766 
L 113.184793 261.937051 
L 116.464132 261.937051 
L 119.743471 244.278657 
L 123.02281 249.576175 
L 126.302149 251.342015 
L 129.581488 256.639533 
L 132.860826 233.68362 
L 136.140165 240.746978 
L 139.419504 238.981139 
L 142.698843 249.576175 
L 145.978182 244.278657 
L 149.257521 216.025226 
L 152.53686 246.044496 
L 155.816198 233.68362 
L 159.095537 242.512818 
L 162.374876 214.259387 
L 165.654215 212.493547 
L 168.933554 207.196029 
L 172.212893 191.303474 
L 175.492231 214.259387 
L 178.77157 184.240117 
L 182.050909 212.493547 
L 185.330248 198.366832 
L 188.609587 217.791066 
L 191.888926 207.196029 
L 195.168264 193.069314 
L 198.447603 184.240117 
L 201.726942 182.474277 
L 205.006281 196.600993 
L 208.28562 175.41092 
L 211.564959 189.537635 
L 214.844298 191.303474 
L 218.123636 166.581723 
L 221.402975 205.43019 
L 224.682314 177.176759 
L 227.961653 186.005956 
L 231.240992 194.835153 
L 234.520331 148.923328 
L 237.799669 170.113401 
L 241.079008 152.455007 
L 244.358347 164.815883 
L 247.637686 148.923328 
L 250.917025 186.005956 
L 254.196364 168.347562 
L 257.475702 157.752526 
L 260.755041 166.581723 
L 264.03438 145.39165 
L 267.313719 136.562453 
L 270.593058 157.752526 
L 273.872397 118.904058 
L 277.151736 117.138219 
L 280.431074 163.050044 
L 283.710413 168.347562 
L 286.989752 148.923328 
L 290.269091 124.201577 
L 293.54843 104.777343 
L 296.827769 118.904058 
L 300.107107 147.157489 
L 303.386446 110.074861 
L 306.665785 122.435737 
L 309.945124 138.328292 
L 313.224463 106.543182 
L 316.503802 111.840701 
L 319.78314 97.713985 
L 323.062479 101.245664 
L 326.341818 103.011504 
L 329.621157 125.967416 
L 332.900496 103.011504 
L 336.179835 115.37238 
L 339.459174 83.58727 
L 342.738512 103.011504 
L 346.017851 95.948146 
L 349.29719 85.353109 
L 352.576529 101.245664 
L 355.855868 99.479825 
L 359.135207 106.543182 
L 362.414545 108.309022 
L 365.693884 74.758073 
L 368.973223 90.650628 
L 372.252562 85.353109 
L 375.531901 113.60654 
L 378.81124 87.118949 
L 382.090579 53.568 
L 385.369917 74.758073 
L 388.649256 67.694715 
L 391.928595 87.118949 
L 395.207934 53.568 
L 398.487273 78.289752 
" style="fill:none;stroke:#ff7f0e;stroke-linecap:square;stroke-width:1.5;"/>
   </g>
   <g id="patch_3">
    <path d="M 57.6 307.584 
L 57.6 41.472 
" style="fill:none;stroke:#000000;stroke-linecap:square;stroke-linejoin:miter;stroke-width:0.8;"/>
   </g>
   <g id="patch_4">
    <path d="M 414.72 307.584 
L 414.72 41.472 
" style="fill:none;stroke:#000000;stroke-linecap:square;stroke-linejoin:miter;stroke-width:0.8;"/>
   </g>
   <g id="patch_5">
    <path d="M 57.6 307.584 
L 414.72 307.584 
" style="fill:none;stroke:#000000;stroke-linecap:square;stroke-linejoin:miter;stroke-width:0.8;"/>
   </g>
   <g id="patch_6">
    <path d="M 57.6 41.472 
L 414.72 41.472 
" style="fill:none;stroke:#000000;stroke-linecap:square;stroke-linejoin:miter;stroke-width:0.8;"/>
   </g>
   <g id="text_15">
    <text style="font-family:DejaVu Sans;font-size:12px;font-style:normal;font-weight:normal;" transform="translate(86.903437 22.034625)">Simulated Mean for (1/3)*x/(1+(1/3)*x) Algorithm</text>
    <text style="font-family:DejaVu Sans;font-size:12px;font-style:normal;font-weight:normal;" transform="translate(132.609375 35.472)">(Wasserstein Distances in Legend)</text>
   </g>
   <g id="legend_1">
    <g id="patch_7">
     <path d="M 64.6 78.82825 
L 242.85 78.82825 
Q 244.85 78.82825 244.85 76.82825 
L 244.85 48.472 
Q 244.85 46.472 242.85 46.472 
L 64.6 46.472 
Q 62.6 46.472 62.6 48.472 
L 62.6 76.82825 
Q 62.6 78.82825 64.6 78.82825 
z
" style="fill:#ffffff;opacity:0.8;stroke:#cccccc;stroke-linejoin:miter;"/>
    </g>
    <g id="line2d_15">
     <path d="M 66.6 54.570437 
L 86.6 54.570437 
" style="fill:none;stroke:#1f77b4;stroke-linecap:square;stroke-width:1.5;"/>
    </g>
    <g id="line2d_16"/>
    <g id="text_16">
     <text style="font-family:DejaVu Sans;font-size:10px;font-style:normal;font-weight:normal;text-anchor:start;" transform="rotate(-0, 94.6, 58.070437)" x="94.6" y="58.070437">(1/3)*x/(1+(1/3)*x)</text>
    </g>
    <g id="line2d_17">
     <path d="M 66.6 69.248562 
L 86.6 69.248562 
" style="fill:none;stroke:#ff7f0e;stroke-linecap:square;stroke-width:1.5;"/>
    </g>
    <g id="line2d_18"/>
    <g id="text_17">
     <text style="font-family:DejaVu Sans;font-size:10px;font-style:normal;font-weight:normal;text-anchor:start;" transform="rotate(-0, 94.6, 72.748562)" x="94.6" y="72.748562">Simul. Mean (WD=0.004301)</text>
    </g>
   </g>
  </g>
 </g>
 <defs>
  <clipPath id="p951c30a8a4">
   <rect height="266.112" width="357.12" x="57.6" y="41.472"/>
  </clipPath>
 </defs>
</svg>

<svg height="460.8" viewBox="0 0 460.8 345.6" width="614.4" xmlns="http://www.w3.org/2000/svg" xmlns:xlink="http://www.w3.org/1999/xlink"><defs><style>*{stroke-linecap:butt;stroke-linejoin:round}</style></defs><g id="figure_1"><path d="M0 345.6h460.8V0H0z" fill="#fff" id="patch_1"/><g id="axes_1"><path d="M57.6 307.584h357.12V41.472H57.6z" fill="#fff" id="patch_2"/><g id="matplotlib.axis_1"><g id="xtick_1"><g id="line2d_1"><defs><path d="M0 0v3.5" id="m5344704c83" stroke="#000" stroke-width=".8"/></defs><use x="73.8" xlink:href="#m5344704c83" y="307.584" stroke="#000" stroke-width=".8"/></g><text x="73.8" y="322.182" font-family="DejaVu Sans" font-size="10" font-weight="400" text-anchor="middle" id="text_1">0.0</text></g><g id="xtick_2"><use x="138.744" xlink:href="#m5344704c83" y="307.584" stroke="#000" stroke-width=".8" id="line2d_2"/><text x="138.744" y="322.182" font-family="DejaVu Sans" font-size="10" font-weight="400" text-anchor="middle" id="text_2">0.2</text></g><g id="xtick_3"><use x="203.688" xlink:href="#m5344704c83" y="307.584" stroke="#000" stroke-width=".8" id="line2d_3"/><text x="203.688" y="322.182" font-family="DejaVu Sans" font-size="10" font-weight="400" text-anchor="middle" id="text_3">0.4</text></g><g id="xtick_4"><use x="268.632" xlink:href="#m5344704c83" y="307.584" stroke="#000" stroke-width=".8" id="line2d_4"/><text x="268.632" y="322.182" font-family="DejaVu Sans" font-size="10" font-weight="400" text-anchor="middle" id="text_4">0.6</text></g><g id="xtick_5"><use x="333.576" xlink:href="#m5344704c83" y="307.584" stroke="#000" stroke-width=".8" id="line2d_5"/><text x="333.576" y="322.182" font-family="DejaVu Sans" font-size="10" font-weight="400" text-anchor="middle" id="text_5">0.8</text></g><g id="xtick_6"><use x="398.52" xlink:href="#m5344704c83" y="307.584" stroke="#000" stroke-width=".8" id="line2d_6"/><text x="398.52" y="322.182" font-family="DejaVu Sans" font-size="10" font-weight="400" text-anchor="middle" id="text_6">1.0</text></g><text x="236.16" y="335.861" font-family="DejaVu Sans" font-size="10" font-weight="400" text-anchor="middle" id="text_7">Input Coin&apos;s Heads Probability (λ)</text></g><g id="matplotlib.axis_2"><g id="ytick_1"><g id="line2d_7"><defs><path d="M0 0h-3.5" id="mf8badf818e" stroke="#000" stroke-width=".8"/></defs><use x="57.6" xlink:href="#mf8badf818e" y="295.488" stroke="#000" stroke-width=".8"/></g><text x="50.6" y="299.287" font-family="DejaVu Sans" font-size="10" font-weight="400" text-anchor="end" id="text_8">0.00</text></g><g id="ytick_2"><use x="57.6" xlink:href="#mf8badf818e" y="251.342" stroke="#000" stroke-width=".8" id="line2d_8"/><text x="50.6" y="255.141" font-family="DejaVu Sans" font-size="10" font-weight="400" text-anchor="end" id="text_9">0.05</text></g><g id="ytick_3"><use x="57.6" xlink:href="#mf8badf818e" y="207.196" stroke="#000" stroke-width=".8" id="line2d_9"/><text x="50.6" y="210.995" font-family="DejaVu Sans" font-size="10" font-weight="400" text-anchor="end" id="text_10">0.10</text></g><g id="ytick_4"><use x="57.6" xlink:href="#mf8badf818e" y="163.05" stroke="#000" stroke-width=".8" id="line2d_10"/><text x="50.6" y="166.849" font-family="DejaVu Sans" font-size="10" font-weight="400" text-anchor="end" id="text_11">0.15</text></g><g id="ytick_5"><use x="57.6" xlink:href="#mf8badf818e" y="118.904" stroke="#000" stroke-width=".8" id="line2d_11"/><text x="50.6" y="122.703" font-family="DejaVu Sans" font-size="10" font-weight="400" text-anchor="end" id="text_12">0.20</text></g><g id="ytick_6"><use x="57.6" xlink:href="#mf8badf818e" y="74.758" stroke="#000" stroke-width=".8" id="line2d_12"/><text x="50.6" y="78.557" font-family="DejaVu Sans" font-size="10" font-weight="400" text-anchor="end" id="text_13">0.25</text></g><text transform="rotate(-90 22.255 174.528)" x="22.255" y="174.528" font-family="DejaVu Sans" font-size="10" font-weight="400" text-anchor="middle" id="text_14">Simulated Mean / Function Value</text></g><path clip-path="url(#p951c30a8a4)" d="M73.833 295.459l3.28-2.962 3.278-2.943 3.28-2.922 3.28-2.903 3.278-2.884 3.28-2.865 3.28-2.847 3.278-2.827 3.28-2.809 3.28-2.79 3.278-2.773 3.28-2.755 3.28-2.737 3.278-2.719 3.28-2.702 3.28-2.684 3.278-2.668 3.28-2.65 3.28-2.634 3.279-2.617 3.279-2.6 3.28-2.585 3.279-2.568 3.279-2.553 3.28-2.536 3.279-2.52 3.279-2.506 3.28-2.49 3.279-2.474 3.279-2.46 3.28-2.444 3.279-2.43 3.279-2.414 3.28-2.4 3.279-2.386 3.279-2.371 3.28-2.357 3.279-2.343 3.279-2.33 3.28-2.315 3.279-2.302 3.279-2.288 3.28-2.274 3.279-2.262 3.279-2.248 3.28-2.235 3.279-2.222 3.279-2.209 3.28-2.196 3.279-2.184 3.279-2.17 3.28-2.16 3.279-2.146 3.279-2.134 3.28-2.122 3.279-2.11 3.279-2.098 3.28-2.086 3.279-2.075 3.28-2.063 3.278-2.05 3.28-2.04 3.28-2.03 3.278-2.017 3.28-2.006 3.28-1.995 3.278-1.985 3.28-1.973 3.28-1.962 3.278-1.952 3.28-1.942 3.28-1.93 3.278-1.92 3.28-1.91 3.28-1.9 3.278-1.89 3.28-1.88 3.28-1.869 3.278-1.86 3.28-1.849 3.28-1.84 3.279-1.83 3.279-1.82 3.28-1.811 3.279-1.801 3.279-1.792 3.28-1.783 3.279-1.774 3.279-1.764 3.28-1.755 3.279-1.746 3.279-1.737 3.28-1.728 3.279-1.72 3.279-1.71 3.28-1.702 3.279-1.694 3.279-1.684 3.28-1.676" fill="none" stroke="#1f77b4" stroke-linecap="square" stroke-width="1.5" id="line2d_13"/><path clip-path="url(#p951c30a8a4)" d="M73.833 295.488l3.28-3.532 3.278 1.766 3.28-7.063 3.28-12.361 3.278 5.297 3.28-12.36 3.28-8.83 3.278 5.298 3.28 15.892 3.28-5.297 3.278 1.766 3.28-14.127h3.28l3.278-17.658 3.28 5.297 3.28 1.766 3.278 5.298 3.28-22.956 3.28 7.063 3.279-1.766 3.279 10.595 3.28-5.297 3.279-28.254 3.279 30.02 3.28-12.361 3.279 8.829 3.279-28.254 3.28-1.765 3.279-5.298 3.279-15.893 3.28 22.956 3.279-30.019 3.279 28.254 3.28-14.127 3.279 19.424 3.279-10.595 3.28-14.127 3.279-8.829 3.279-1.766 3.28 14.127 3.279-21.19 3.279 14.127 3.28 1.765 3.279-24.721 3.279 38.848 3.28-28.253 3.279 8.829 3.279 8.83 3.28-45.913 3.279 21.19 3.279-17.658 3.28 12.36 3.279-15.892 3.279 37.083 3.28-17.658 3.279-10.595 3.279 8.829 3.28-21.19 3.279-8.83 3.28 21.19 3.278-38.848 3.28-1.766 3.28 45.912 3.278 5.298 3.28-19.425 3.28-24.721 3.278-19.425 3.28 14.127 3.28 28.253 3.278-37.082 3.28 12.36 3.28 15.893 3.278-31.785 3.28 5.298 3.28-14.127 3.278 3.532 3.28 1.766 3.28 22.955 3.278-22.955 3.28 12.36 3.28-31.785 3.279 19.425 3.279-7.064 3.28-10.595 3.279 15.893 3.279-1.766 3.28 7.063 3.279 1.766 3.279-33.55 3.28 15.892 3.279-5.298 3.279 28.254 3.28-26.488 3.279-33.551 3.279 21.19 3.28-7.063 3.279 19.424 3.279-33.551 3.28 24.722" fill="none" stroke="#ff7f0e" stroke-linecap="square" stroke-width="1.5" id="line2d_14"/><path d="M57.6 307.584V41.472" fill="none" stroke="#000" stroke-linecap="square" stroke-width=".8" id="patch_3"/><path d="M414.72 307.584V41.472" fill="none" stroke="#000" stroke-linecap="square" stroke-width=".8" id="patch_4"/><path d="M57.6 307.584h357.12" fill="none" stroke="#000" stroke-linecap="square" stroke-width=".8" id="patch_5"/><path d="M57.6 41.472h357.12" fill="none" stroke="#000" stroke-linecap="square" stroke-width=".8" id="patch_6"/><g id="text_15" font-family="DejaVu Sans" font-size="12" font-weight="400"><text transform="translate(86.903 22.035)">Simulated Mean for (1/3)*x/(1+(1/3)*x) Algorithm</text><text transform="translate(132.61 35.472)">(Wasserstein Distances in Legend)</text></g><g id="legend_1"><path d="M64.6 78.828h178.25q2 0 2-2V48.472q0-2-2-2H64.6q-2 0-2 2v28.356q0 2 2 2z" fill="#fff" opacity=".8" stroke="#ccc" id="patch_7"/><path d="M66.6 54.57h20" fill="none" stroke="#1f77b4" stroke-linecap="square" stroke-width="1.5" id="line2d_15"/><text x="94.6" y="58.07" font-family="DejaVu Sans" font-size="10" font-weight="400" id="text_16">(1/3)*x/(1+(1/3)*x)</text><path d="M66.6 69.249h20" fill="none" stroke="#ff7f0e" stroke-linecap="square" stroke-width="1.5" id="line2d_17"/><text x="94.6" y="72.749" font-family="DejaVu Sans" font-size="10" font-weight="400" id="text_17">Simul. Mean (WD=0.004301)</text></g></g></g><defs><clipPath id="p951c30a8a4"><path d="M57.6 41.472h357.12v266.112H57.6z"/></clipPath></defs></svg>
